**kern	**kern	**dynam
*part1	*part1	*part1
*staff2	*staff1	*
*I"Piano	*	*
*clefF4	*clefG2	*
*k[b-e-a-]	*k[b-e-a-]	*
=1	=1	=1
*	*^	*
4F 4e-X	4f 4cc	(8b-L	<
.	.	8anJ)	.
*	*v	*v	*
8FL 8e-	8fL 8a 8cc	.
8FJ 8e-	8fJ 8a 8cc	.
=	=	=
*^	*^	*
8e-L	4F	8ccL	4f 4an	[ >
8d	.	8dd	.	.
8c	8FL	8ee-	8fL 8a	.
8cJ	8FJ	8ffJ	8fJ 8a	.
*v	*v	*	*	*
*	*v	*v	*
=	=	=
4BB- 4B-	4f 4a-X 4ee-	]
!	!LO:TX:b:i:t=decresc.	!
8B-L	8fL 8a- 8dd	.
8B-J	8fJ 8a- 8dd	.
=	=	=
4B-	4f 4a- 4dd	.
8B-L 8f	8a-L 8dd	.
8B-J 8f	8a-J 8dd	.
=	=	=
4B- 4f	4a- 4dd	.
8B-L 8e-	8a-L 8ee-	.
8B-J 8d	8a-J 8ff	.
=	=	=
4E- 4B- 4e-	4g 4ee-	.
8E-L 8B-	8e-L 8g	pp
8E-J 8B-	8e-J 8g	.
=	=	=
4E- 4B-	4e- 4g	.
8E-L 8B-	8e-L 8g	.
8E-J 8B-	8e-J 8g	.
=	=	=
4E- 4B-	4e- 4g	.
8E-L 8B-	8e-L 8g	.
8E-J 8B-	8e-J 8g	.
=	=	=
*-	*-	*-
!!!system-decoration: {(s1,s2)}
